public/Logo/WhiteHead.svg

<svg width="210" height="175" viewBox="0 0 210 175" fill="none" xmlns="http://www.w3.org/2000/svg">
<path d="M209.957 58.3703V106.98C209.957 110.24 207.997 113.05 205.197 114.29V152.37C205.197 164.4 195.447 174.14 183.427 174.14H157.947C148.397 174.14 135.957 167.92 133.137 158.8L121.217 120.21C120.327 117.36 116.347 117.23 115.277 120.01L100.407 158.48L99.7571 160.15C99.6971 160.3 99.6371 160.45 99.5771 160.6C97.4071 165.5 93.6371 169.64 88.5571 172.12C86.4571 173.15 84.2671 173.77 82.0771 174.01C82.0471 174.03 82.0071 174.03 81.9671 174.03C81.6671 174.06 81.3571 174.08 81.0571 174.1C80.2571 174.16 79.4471 174.16 78.6371 174.1C78.3371 174.08 78.0271 174.06 77.7271 174.03C77.6971 174.03 77.6571 174.02 77.6171 174.01C75.4271 173.77 73.2371 173.15 71.1371 172.12C66.0571 169.64 62.2871 165.5 60.1171 160.6C60.0571 160.45 59.9971 160.3 59.9371 160.15L59.2871 158.48L0.307115 5.89026C-0.782885 3.05026 1.15711 0.040263 4.09711 0.030263L12.6271 0.000263043C18.3571 -0.019737 24.0671 1.10026 29.2571 3.53026C29.6371 3.70026 30.0271 3.89026 30.4171 4.09026C30.8671 4.31026 31.2971 4.55026 31.7271 4.78026C38.9671 8.80026 44.5571 15.2503 47.8871 22.8303C57.5771 44.8803 67.2771 66.9403 76.9671 88.9903C78.0771 91.4903 81.6271 91.4903 82.7271 88.9903C92.4171 66.9403 102.117 44.8803 111.807 22.8303C115.137 15.2503 120.727 8.80026 127.967 4.78026C128.397 4.55026 128.837 4.31026 129.277 4.09026C129.667 3.89026 130.057 3.70026 130.437 3.53026C135.627 1.10026 145.337 -0.019737 151.067 0.000263043L159.597 0.030263H183.427C195.447 0.030263 205.197 9.78026 205.197 21.8003V54.3803H205.967C208.177 54.3803 209.957 56.1703 209.957 58.3703Z" fill="white"/>
<path d="M194.147 152.67C194.147 155.84 191.567 158.41 188.407 158.41C187.307 158.41 186.407 159.31 186.407 160.41C186.407 161.51 187.307 162.41 188.407 162.41C193.777 162.41 198.147 158.04 198.147 152.67V114.97H194.147V152.67Z" fill="black"/>
<path d="M198.147 21.1004C198.147 15.7304 193.777 11.3604 188.407 11.3604H133.257C132.157 11.3604 131.257 12.2604 131.257 13.3604C131.257 14.4604 132.157 15.3604 133.257 15.3604H188.407C191.577 15.3604 194.147 17.9404 194.147 21.1004V54.3804H198.147V21.1004Z" fill="black"/>
<path d="M155.397 150.95H152.837C152.287 150.95 151.837 151.4 151.837 151.95C151.837 152.5 152.287 152.95 152.837 152.95H155.397C155.947 152.95 156.397 152.5 156.397 151.95C156.397 151.4 155.947 150.95 155.397 150.95Z" fill="black"/>
<path d="M167.397 150.95H161.397C160.847 150.95 160.397 151.4 160.397 151.95C160.397 152.5 160.847 152.95 161.397 152.95H167.397C167.947 152.95 168.397 152.5 168.397 151.95C168.397 151.4 167.947 150.95 167.397 150.95Z" fill="black"/>
<path d="M179.397 150.95H173.397C172.847 150.95 172.397 151.4 172.397 151.95C172.397 152.5 172.847 152.95 173.397 152.95H179.397C179.947 152.95 180.397 152.5 180.397 151.95C180.397 151.4 179.947 150.95 179.397 150.95Z" fill="black"/>
<path d="M187.297 143.97C186.747 143.97 186.297 144.42 186.297 144.97V145.11C186.297 146.83 185.577 148.45 184.327 149.56C183.917 149.93 183.877 150.56 184.247 150.97C184.447 151.19 184.717 151.31 184.997 151.31C185.237 151.31 185.467 151.23 185.657 151.06C187.337 149.57 188.307 147.4 188.307 145.11V144.97C188.307 144.42 187.857 143.97 187.307 143.97H187.297Z" fill="black"/>
<path d="M148.407 21.8203C148.407 21.2703 147.957 20.8203 147.407 20.8203H141.407C140.857 20.8203 140.407 21.2703 140.407 21.8203C140.407 22.3703 140.857 22.8203 141.407 22.8203H147.407C147.957 22.8203 148.407 22.3703 148.407 21.8203Z" fill="black"/>
<path d="M165.407 22.8203H171.407C171.957 22.8203 172.407 22.3703 172.407 21.8203C172.407 21.2703 171.957 20.8203 171.407 20.8203H165.407C164.857 20.8203 164.407 21.2703 164.407 21.8203C164.407 22.3703 164.857 22.8203 165.407 22.8203Z" fill="black"/>
<path d="M186.297 28.6702V30.9702C186.297 31.5202 186.747 31.9702 187.297 31.9702C187.847 31.9702 188.297 31.5202 188.297 30.9702V28.6702C188.297 27.4402 188.017 26.1402 187.457 24.7102C187.257 24.2002 186.677 23.9402 186.157 24.1502C185.647 24.3502 185.387 24.9302 185.597 25.4502C186.067 26.6502 186.297 27.7102 186.297 28.6802V28.6702Z" fill="black"/>
<path d="M177.407 22.8203H183.407C183.957 22.8203 184.407 22.3703 184.407 21.8203C184.407 21.2703 183.957 20.8203 183.407 20.8203H177.407C176.857 20.8203 176.407 21.2703 176.407 21.8203C176.407 22.3703 176.857 22.8203 177.407 22.8203Z" fill="black"/>
<path d="M153.407 22.8203H159.407C159.957 22.8203 160.407 22.3703 160.407 21.8203C160.407 21.2703 159.957 20.8203 159.407 20.8203H153.407C152.857 20.8203 152.407 21.2703 152.407 21.8203C152.407 22.3703 152.857 22.8203 153.407 22.8203Z" fill="black"/>
<path d="M187.297 131.97C186.747 131.97 186.297 132.42 186.297 132.97V138.97C186.297 139.52 186.747 139.97 187.297 139.97C187.847 139.97 188.297 139.52 188.297 138.97V132.97C188.297 132.42 187.847 131.97 187.297 131.97Z" fill="black"/>
<path d="M187.297 35.9702C186.747 35.9702 186.297 36.4202 186.297 36.9702V42.9702C186.297 43.5202 186.747 43.9702 187.297 43.9702C187.847 43.9702 188.297 43.5202 188.297 42.9702V36.9702C188.297 36.4202 187.847 35.9702 187.297 35.9702Z" fill="black"/>
<path d="M188.297 48.9702C188.297 48.4202 187.847 47.9702 187.297 47.9702C186.747 47.9702 186.297 48.4202 186.297 48.9702V54.3802H188.297V48.9702Z" fill="black"/>
<path d="M187.297 119.97C186.747 119.97 186.297 120.42 186.297 120.97V126.97C186.297 127.52 186.747 127.97 187.297 127.97C187.847 127.97 188.297 127.52 188.297 126.97V120.97C188.297 120.42 187.847 119.97 187.297 119.97Z" fill="black"/>
<path d="M187.297 115.97C187.847 115.97 188.287 115.53 188.297 114.98H186.297C186.297 115.53 186.747 115.97 187.297 115.97Z" fill="black"/>
<path d="M177.007 105.42C164.917 105.42 155.077 96.1104 155.077 84.6704C155.077 73.2304 164.917 63.9204 177.007 63.9204H202.017C203.117 63.9204 204.017 63.0204 204.017 61.9204C204.017 60.8204 203.117 59.9204 202.017 59.9204H177.007C162.587 59.9204 150.847 71.0204 150.847 84.6704C150.847 98.3204 162.577 109.42 177.007 109.42H202.017C203.117 109.42 204.017 108.52 204.017 107.42C204.017 106.32 203.117 105.42 202.017 105.42H177.007Z" fill="black" stroke="black" stroke-width="0.75" stroke-linecap="round" stroke-linejoin="round"/>
<path d="M178.197 92.5104C181.958 92.5104 185.007 89.4614 185.007 85.7004C185.007 81.9393 181.958 78.8904 178.197 78.8904C174.436 78.8904 171.387 81.9393 171.387 85.7004C171.387 89.4614 174.436 92.5104 178.197 92.5104Z" fill="black" stroke="black" stroke-miterlimit="10"/>
</svg>

<svg xmlns="http://www.w3.org/2000/svg" fill="none" viewBox="0 0 210 175"><path fill="#fff" d="M209.957 58.37v48.61a8 8 0 0 1-4.76 7.31v38.08c0 12.03-9.75 21.77-21.77 21.77h-25.48c-9.55 0-21.99-6.22-24.81-15.34l-11.92-38.59c-.89-2.85-4.87-2.98-5.94-.2l-14.87 38.47-.65 1.67-.18.45c-2.17 4.9-5.94 9.04-11.02 11.52-2.1 1.03-4.29 1.65-6.48 1.89-.03.02-.07.02-.11.02-.3.03-.61.05-.91.07-.8.06-1.61.06-2.42 0-.3-.02-.61-.04-.91-.07-.03 0-.07-.01-.11-.02-2.19-.24-4.38-.86-6.48-1.89-5.08-2.48-8.85-6.62-11.02-11.52l-.18-.45-.65-1.67L.307 5.89c-1.09-2.84.85-5.85 3.79-5.86l8.53-.03c5.73-.02 11.44 1.1 16.63 3.53.38.17.77.36 1.16.56.45.22.88.46 1.31.69 7.24 4.02 12.83 10.47 16.16 18.05 9.69 22.05 19.39 44.11 29.08 66.16 1.11 2.5 4.66 2.5 5.76 0 9.69-22.05 19.39-44.11 29.08-66.16 3.33-7.58 8.92-14.03 16.16-18.05.43-.23.87-.47 1.31-.69.39-.2.78-.39 1.16-.56 5.19-2.43 14.9-3.55 20.63-3.53l8.53.03h23.83c12.02 0 21.77 9.75 21.77 21.77v32.58h.77c2.21 0 3.99 1.79 3.99 3.99"/><path fill="#000" d="M194.147 152.67c0 3.17-2.58 5.74-5.74 5.74-1.1 0-2 .9-2 2s.9 2 2 2c5.37 0 9.74-4.37 9.74-9.74v-37.7h-4zm4-131.57c0-5.37-4.37-9.74-9.74-9.74h-55.15c-1.1 0-2 .9-2 2s.9 2 2 2h55.15c3.17 0 5.74 2.58 5.74 5.74v33.28h4zm-42.75 129.85h-2.56c-.55 0-1 .45-1 1s.45 1 1 1h2.56c.55 0 1-.45 1-1s-.45-1-1-1m12 0h-6c-.55 0-1 .45-1 1s.45 1 1 1h6c.55 0 1-.45 1-1s-.45-1-1-1m12 0h-6c-.55 0-1 .45-1 1s.45 1 1 1h6c.55 0 1-.45 1-1s-.45-1-1-1m7.9-6.98c-.55 0-1 .45-1 1v.14c0 1.72-.72 3.34-1.97 4.45-.41.37-.45 1-.08 1.41.2.22.47.34.75.34.24 0 .47-.08.66-.25 1.68-1.49 2.65-3.66 2.65-5.95v-.14c0-.55-.45-1-1-1z"/><path fill="#000" d="M148.407 21.82c0-.55-.45-1-1-1h-6c-.55 0-1 .45-1 1s.45 1 1 1h6c.55 0 1-.45 1-1m17 1h6c.55 0 1-.45 1-1s-.45-1-1-1h-6c-.55 0-1 .45-1 1s.45 1 1 1m20.89 5.85v2.3c0 .55.45 1 1 1s1-.45 1-1v-2.3c0-1.23-.28-2.53-.84-3.96a.995.995 0 0 0-1.3-.56c-.51.2-.77.78-.56 1.3.47 1.2.7 2.26.7 3.23zm-8.89-5.85h6c.55 0 1-.45 1-1s-.45-1-1-1h-6c-.55 0-1 .45-1 1s.45 1 1 1m-24 0h6c.55 0 1-.45 1-1s-.45-1-1-1h-6c-.55 0-1 .45-1 1s.45 1 1 1m33.89 109.15c-.55 0-1 .45-1 1v6c0 .55.45 1 1 1s1-.45 1-1v-6c0-.55-.45-1-1-1m0-96c-.55 0-1 .45-1 1v6c0 .55.45 1 1 1s1-.45 1-1v-6c0-.55-.45-1-1-1m1 13c0-.55-.45-1-1-1s-1 .45-1 1v5.41h2zm-1 71c-.55 0-1 .45-1 1v6c0 .55.45 1 1 1s1-.45 1-1v-6c0-.55-.45-1-1-1m0-4a1 1 0 0 0 1-.99h-2c0 .55.45.99 1 .99"/><path fill="#000" stroke="#000" stroke-linecap="round" stroke-linejoin="round" stroke-width=".75" d="M177.007 105.42c-12.09 0-21.93-9.31-21.93-20.75s9.84-20.75 21.93-20.75h25.01c1.1 0 2-.9 2-2s-.9-2-2-2h-25.01c-14.42 0-26.16 11.1-26.16 24.75s11.73 24.75 26.16 24.75h25.01c1.1 0 2-.9 2-2s-.9-2-2-2z"/><path fill="#000" stroke="#000" stroke-miterlimit="10" d="M178.197 92.51a6.81 6.81 0 1 0 0-13.62 6.81 6.81 0 0 0 0 13.62Z"/></svg>
